icons/evolvere-blue-folders-flat-vivid-dark-fallback/places/64/favorites.svg

<?xml version="1.0" encoding="UTF-8" standalone="no"?>
<!-- Created with Inkscape (http://www.inkscape.org/) -->

<svg
   xmlns:dc="http://purl.org/dc/elements/1.1/"
   xmlns:cc="http://creativecommons.org/ns#"
   xmlns:rdf="http://www.w3.org/1999/02/22-rdf-syntax-ns#"
   xmlns:svg="http://www.w3.org/2000/svg"
   xmlns="http://www.w3.org/2000/svg"
   xmlns:sodipodi="http://sodipodi.sourceforge.net/DTD/sodipodi-0.dtd"
   xmlns:inkscape="http://www.inkscape.org/namespaces/inkscape"
   width="64"
   height="64"
   id="svg13094"
   version="1.1"
   inkscape:version="0.91+devel r"
   sodipodi:docname="favorites.svg">
  <sodipodi:namedview
     id="base"
     pagecolor="#ffffff"
     bordercolor="#666666"
     borderopacity="1.0"
     inkscape:pageopacity="0"
     inkscape:pageshadow="2"
     inkscape:zoom="11.313709"
     inkscape:cx="18.201637"
     inkscape:cy="31.428323"
     inkscape:document-units="px"
     inkscape:current-layer="svg13094"
     showgrid="true"
     inkscape:snap-bbox="true"
     inkscape:bbox-paths="true"
     inkscape:bbox-nodes="true"
     inkscape:snap-bbox-edge-midpoints="true"
     inkscape:snap-bbox-midpoints="true"
     inkscape:object-paths="true"
     inkscape:snap-intersection-paths="true"
     inkscape:object-nodes="true"
     inkscape:snap-smooth-nodes="true"
     inkscape:snap-midpoints="true"
     inkscape:snap-object-midpoints="true"
     inkscape:snap-center="true"
     showguides="true"
     inkscape:guide-bbox="true"
     inkscape:window-width="1920"
     inkscape:window-height="1023"
     inkscape:window-x="-10"
     inkscape:window-y="35"
     inkscape:window-maximized="1"
     inkscape:snap-global="true"
     fit-margin-top="0"
     fit-margin-left="0"
     fit-margin-right="0"
     fit-margin-bottom="0"
     showborder="true"
     inkscape:showpageshadow="false"
     inkscape:snap-page="true">
    <inkscape:grid
       type="xygrid"
       id="grid3075"
       empspacing="5"
       visible="true"
       enabled="true"
       snapvisiblegridlinesonly="true"
       originx="1.6362304e-08px"
       originy="18px" />
  </sodipodi:namedview>
  <defs
     id="defs13096" />
  <metadata
     id="metadata13099">
    <rdf:RDF>
      <cc:Work
         rdf:about="">
        <dc:format>image/svg+xml</dc:format>
        <dc:type
           rdf:resource="http://purl.org/dc/dcmitype/StillImage" />
        <dc:title></dc:title>
      </cc:Work>
    </rdf:RDF>
  </metadata>
  <path
     inkscape:connector-curvature="0"
     style="color:#000000;fill:#eeb015;fill-opacity:1;fill-rule:nonzero;stroke:none;stroke-width:2.28571415;marker:none;visibility:visible;display:inline;overflow:visible;enable-background:accumulate"
     d="m 0,4 0,30 0,28 2,2 30,0 30,0 2,-2 L 64,34 64,4 32,4 0,4 z"
     id="path4095" />
  <path
     inkscape:connector-curvature="0"
     style="color:#000000;fill:#ffe231;fill-opacity:1;fill-rule:nonzero;stroke:none;stroke-width:2.28571415;marker:none;visibility:visible;display:inline;overflow:visible;enable-background:accumulate"
     d="M 2,0 0,1 0,4 32,4 64,4 64,1 62,0 32,0 2,0 z"
     id="path4090" />
  <path
     d="M 64,6 62,4 64,3 z"
     id="path3028"
     style="fill:#770000;fill-opacity:0.10822898"
     inkscape:connector-curvature="0" />
  <g
     id="g3043"
     inkscape:export-filename="folder.png"
     inkscape:export-xdpi="90"
     inkscape:export-ydpi="90"
     transform="translate(-0.62500009,0.082283)" />
  <g
     id="scalable"
     transform="matrix(1.0385892,0,0,1.0385892,1214.7222,1878.8121)"
     inkscape:label="#g3701"
     style="fill:#ffffff" />
  <path
     inkscape:connector-curvature="0"
     style="color:#000000;display:inline;overflow:visible;visibility:visible;fill:#f1f0ee;fill-opacity:1;fill-rule:nonzero;stroke:none;stroke-width:2.28571415;marker:none;enable-background:accumulate"
     inkscape:transform-center-y="-2.1066334"
     d="m 32.000002,11.982621 c 0.588329,0 6.005352,12.857427 6.481321,13.203239 0.475969,0.345813 14.378061,1.524544 14.559866,2.08408 0.181804,0.559536 -10.372384,9.684593 -10.554188,10.244128 -0.181805,0.559536 2.993138,14.14546 2.517169,14.491271 -0.47597,0.345812 -12.415839,-6.872019 -13.004169,-6.872019 -0.588331,0 -12.528201,7.21783 -13.00417,6.872019 -0.47597,-0.345812 2.698974,-13.931735 2.517169,-14.49127 -0.181804,-0.559536 -10.735992,-9.684594 -10.554188,-10.24413 0.181805,-0.559536 14.083897,-1.738266 14.559866,-2.084079 0.475969,-0.345812 5.892993,-13.203239 6.481324,-13.203239 z"
     id="path4173" />
  <path
     style="color:#000000;display:inline;overflow:visible;visibility:visible;fill:#770000;fill-opacity:0.10822898;fill-rule:nonzero;stroke:none;stroke-width:2.28571415;marker:none;enable-background:accumulate"
     d="m 33,12.96875 c -0.04515,0 -0.121125,0.109994 -0.21875,0.25 1.658004,3.153014 5.298756,11.686311 5.6875,11.96875 0.04027,0.02926 0.315166,0.05344 0.53125,0.09375 -1.445229,-2.911588 -5.495464,-12.3125 -6,-12.3125 z m 19.59375,14.9375 C 50.614482,30.092823 42.657867,37.014136 42.5,37.5 42.318195,38.059536 45.475969,51.654189 45,52 44.52403,52.345812 32.58833,45.125 32,45.125 c -0.494566,0 -8.952805,5.048393 -11.9375,6.46875 C 19.953813,52.354048 19.914763,52.938072 20,53 c 0.475969,0.345811 12.411669,-6.875 13,-6.875 0.58833,0 12.52403,7.220812 13,6.875 0.475969,-0.345811 -2.681805,-13.940464 -2.5,-14.5 0.181804,-0.559535 10.713054,-9.690464 10.53125,-10.25 -0.03363,-0.103494 -0.636864,-0.207077 -1.4375,-0.34375 z m -39.8125,1.375 c 1.819244,1.890813 6.321816,5.904212 8.5,7.96875 -0.852753,-0.981441 -5.751145,-5.31376 -8.5,-7.96875 z"
     id="path3371"
     inkscape:connector-curvature="0" />
  <path
     d="M 0,6 2,4 0,3 Z"
     id="path3028-6"
     style="fill:#fff77d;fill-opacity:0.67441863"
     inkscape:connector-curvature="0" />
</svg>

<svg xmlns="http://www.w3.org/2000/svg" viewBox="0 0 64 64"><g color="#000"><path d="m0 4v30 28l2 2h30 30l2-2v-28-30h-32-32" fill="#eeb015"/><path d="m2 0l-2 1v3h32 32v-3l-2-1h-30-30" fill="#ffe231"/></g><path d="m64 6l-2-2 2-1z" fill="#700" fill-opacity=".108"/><g color="#000"><path d="m32 11.983c.588 0 6.01 12.857 6.481 13.203.476.346 14.378 1.525 14.56 2.084.182.56-10.372 9.685-10.554 10.244-.182.56 2.993 14.15 2.517 14.491-.476.346-12.416-6.872-13-6.872-.588 0-12.528 7.218-13 6.872-.476-.346 2.699-13.932 2.517-14.491-.182-.56-10.736-9.685-10.554-10.244.182-.56 14.08-1.738 14.56-2.084.476-.346 5.893-13.203 6.481-13.203" fill="#f1f0ee"/><path d="m33 12.969c-.045 0-.121.11-.219.25 1.658 3.153 5.299 11.686 5.688 11.969.04.029.315.053.531.094-1.445-2.912-5.495-12.313-6-12.313m19.594 14.938c-1.979 2.187-9.936 9.108-10.09 9.594-.182.56 2.976 14.154 2.5 14.5-.476.346-12.412-6.875-13-6.875-.495 0-8.953 5.05-11.938 6.469-.109.76-.148 1.344-.063 1.406.476.346 12.412-6.875 13-6.875.588 0 12.524 7.221 13 6.875.476-.346-2.682-13.94-2.5-14.5.182-.56 10.713-9.69 10.531-10.25-.034-.103-.637-.207-1.438-.344m-39.813 1.375c1.819 1.891 6.322 5.904 8.5 7.969-.853-.981-5.751-5.314-8.5-7.969" fill="#700" fill-opacity=".108"/></g><path d="m0 6l2-2-2-1" fill="#fff77d" fill-opacity=".674"/></svg>
